!!!OTL: "Vorsorge" WENN I MAL EN HAUS BEKOMM
!!!ARE: Europa, Mitteleuropa, Deutschland Schwaben
!!!SCT: Z1377
!!!YEM: Copyright 1995, estate of Helmut Schaffrath.
**kern
*ICvox
*Ivox
*M2/4
*k[f#c#g#]
*A:
{8e
=1
8a
8b
8cc#
8dd
=2
8ee
8ee
4cc#}
=3
{4ee
8b
8b
=4
8cc#
8dd
4ee}
=5
{8cc#
8dd
4ee
=6
8cc#
8dd
4ee}
=7
{8cc#
8dd
4ee
=8
8cc#
8dd
4ee}
=9
{4cc#
8dd
8dd
=10
8ee
8ff#
8ee}
{8dd
=11
8cc#
8cc#
8ee
8ee
=12
8cc#
8dd
4ee}
=13
{4cc#
8dd
8dd
=14
8ee
8ff#
8ee}
{8dd
=15
8cc#
8dd
8ee
8dd
=16
4.cc#}
==
!!!AGN: Kinder - Lied
!!!ONB: ESAC (Essen Associative Code) Database: ZUCCAL
!!!AMT: simple duple
!!!AIN: vox
!!!EED: Helmut Schaffrath
!!!EEV: 1.0
*-
